!!!COM: Monteverdi, Claudio
!!!CDT: 1567/05/15/-1643/11/29/
!!!OTL: Ure me 
!!!OTL2: Troppo ben pu&ograve;
!!!ONM: No. 17
!!!SMS: Musica tolta da i madrigali di Claudio Monteverdi, e d'altri autori, e fatta spirituale
!!!PPR: A. Coppini, ed.
!!!PPP: Milan
!!!PDT: 1607
!!!URL: http://www.jpj.dk/coppini.htm
!!!AIN: contrafacta
**kern	**kern	**kern	**kern	**kern
*staff5	*staff4	*staff3	*staff2	*staff1
*Ivox	*Ivox	*Ivox	*Ivox	*Ivox
!basso	!tenore	!alto	!quinto	!canto
*clefF4	*clefG2	*clefG2	*clefG2	*clefG2
*k[]	*k[]	*k[]	*k[]	*k[]
*M4/4	*M4/4	*M4/4	*M4/4	*M4/4
*MM120	*MM120	*MM120	*MM120	*MM120
=1-	=1-	=1-	=1-	=1-
1r	1r	[1dd	1r	1r
=2	=2	=2	=2	=2
1r	1dd	4dd\]	1r	1r
.	.	8cc#\	.	.
.	.	8dd\	.	.
.	.	4.ee\	.	.
.	.	8ee\	.	.
=3	=3	=3	=3	=3
1r	8cc#\	8ee\	1r	1r
.	8b\	8ee\	.	.
.	8a/	2ee\	.	.
.	8g/	.	.	.
.	8f#/	.	.	.
.	8e/	.	.	.
.	8f#/	4ee\	.	.
.	8g/	.	.	.
=4	=4	=4	=4	=4
2.D\	2a/	2dd\	2.f#/	[1dd
.	2a/	4dd\	.	.
8C#/	.	4dd\	8e/	.
8D\	.	.	8f#/	.
=5	=5	=5	=5	=5
4.E\	1r	4.b\	4.g/	2dd\]
8E\	.	8b\	8g/	.
8E\	.	[2b\	8g/	8cc#/
8E\	.	.	8g/	8b/
[4E\	.	.	[4g/	8a/
.	.	.	.	8g/
=6	=6	=6	=6	=6
4E\]	2r	4b\]	4g/]	8f#/
.	.	.	.	8e/
4E\	.	4ee\	4g/	8f#/
.	.	.	.	8g/
2D\	4r	2a/	2f#/	2a/
.	[4dd\	.	.	.
=7	=7	=7	=7	=7
2.D\	4dd\]	2a/	2f#/	2a/
.	8cc\	.	.	.
.	8b\	.	.	.
.	2a/	2r	[2f#/	[2a/
4D\	.	.	.	.
=8	=8	=8	=8	=8
4.BB/	2.a/	1r	4f#/]	4a/]
.	.	.	8e/	8g/
8BB/	.	.	8d/	8f/
4BB/	.	.	4c#/	4.e/
4BB/	4g/	.	4B/	.
.	.	.	.	8d/
=9	=9	=9	=9	=9
1AA	2e/	8r	1e	2c#/
.	.	8e/	.	.
.	.	8f#/	.	.
.	.	8g/	.	.
.	8e/	[2a/	.	2c#/
.	8e/	.	.	.
.	8f#/	.	.	.
.	8g/	.	.	.
=10	=10	=10	=10	=10
4AA/	2a/	2a/]	4c#/	8r
.	.	.	.	8e/
4GG/	.	.	4d/	8f/
.	.	.	.	8g/
4.FF#/	8r	2a/	4.d/	2a/
.	8a/	.	.	.
.	8b\	.	.	.
8FF#/	8cc\	.	8d/	.
=11	=11	=11	=11	=11
2.FF#/	2dd\	1a	2d/	8r
.	.	.	.	8a/
.	.	.	.	8b\
.	.	.	.	8cc\
.	2d/	.	4d/	[2dd\
4GG/	.	.	[4d/	.
=12	=12	=12	=12	=12
1AA	1a	1a	4d/]	4dd\]
.	.	.	8c#/L	4e/
.	.	.	8B/J	.
.	.	.	2c#/	2e/
=13	=13	=13	=13	=13
1D	1f#	1a	1d	1d
=14	=14	=14	=14	=14
2.D\	1r	1r	1r	2.a/
4D\	.	.	.	4a/
=15	=15	=15	=15	=15
2D\	1r	1r	1r	2a/
4D\	.	.	.	4a/
4D\	.	.	.	4a/
=16	=16	=16	=16	=16
2.D\	1r	1r	1r	2.a/
4D\	.	.	.	4a/
=17	=17	=17	=17	=17
2D\	1r	1r	1r	8.d/L
.	.	.	.	16e/Jk
.	.	.	.	8.f/L
.	.	.	.	16g/Jk
2C/	.	.	.	8.e/L
.	.	.	.	16f/Jk
.	.	.	.	8.g/L
.	.	.	.	16a/Jk
=18	=18	=18	=18	=18
2F\	1r	1r	1r	8.f/L
.	.	.	.	16g/Jk
.	.	.	.	8.f/L
.	.	.	.	16g/Jk
2D\	.	.	.	8.a/L
.	.	.	.	16b/Jk
.	.	.	.	8.a/L
.	.	.	.	16b/Jk
=19	=19	=19	=19	=19
2AA/	1r	1r	1r	8.cc\L
.	.	.	.	16dd\Jk
.	.	.	.	8.b\L
.	.	.	.	16cc\Jk
2GG/	.	.	.	8.dd\L
.	.	.	.	16ee\Jk
.	.	.	.	8.cc\L
.	.	.	.	16dd\Jk
=20	=20	=20	=20	=20
2C/	1r	1r	1r	2.ee\
2D\	.	.	.	.
.	.	.	.	8dd\
.	.	.	.	8cc\
=21	=21	=21	=21	=21
1E	1r	1r	1r	8b/L
.	.	.	.	8a/J
.	.	.	.	8b\L
.	.	.	.	8cc\J
.	.	.	.	8.dd\L
.	.	.	.	16cc\Jk
.	.	.	.	8b\L
.	.	.	.	8cc\J
=22	=22	=22	=22	=22
2AA/	2r	2r	2r	4.a/
.	.	.	.	8g/
2A\	2cc\	2cc\	2e/	8.a/L
.	.	.	.	16b/Jk
.	.	.	.	8.cc\L
.	.	.	.	16dd\Jk
=23	=23	=23	=23	=23
1G	1g	1dd	1g	4b\
.	.	.	.	2cc\
.	.	.	.	4b\
=24	=24	=24	=24	=24
2C/	2g/	2ee\	2g/	8r
.	.	.	.	8cc\
.	.	.	.	8dd\L
.	.	.	.	8ee\J
4F\	2r	2r	2r	8ff\L
.	.	.	.	8ee\J
4G\	.	.	.	8dd\L
.	.	.	.	8ee\J
=25	=25	=25	=25	=25
2C/	1r	2r	2r	4cc\
.	.	.	.	4cc\
8r	.	8r	8r	2r
8A\	.	8cc\	8e/	.
8A\	.	8cc\	8e/	.
8A\	.	8cc\	8e/	.
=26	=26	=26	=26	=26
4G#\	1r	4b\	4e/	1r
4A\	.	4cc#\	4e/	.
2D\	.	8.dd\L	8.f/L	.
.	.	16ee\Jk	16g/Jk	.
.	.	4ff\	4a/	.
=27	=27	=27	=27	=27
2A\	1r	2cc#\	2e/	8r
.	.	.	.	8a/
.	.	.	.	8b\L
.	.	.	.	8cc#\J
4D\	.	2r	2r	8dd\L
.	.	.	.	8cc#\J
4E\	.	.	.	8b\L
.	.	.	.	8cc#\J
=28	=28	=28	=28	=28
2AA/	2r	2r	1r	4a/
.	.	.	.	4a/
8r	8r	8r	.	2r
8F\	8a/	8cc\	.	.
8F\	8a/	8cc\	.	.
8F\	8a/	8cc\	.	.
=29	=29	=29	=29	=29
4E\	4g/	4cc\	1r	1r
4F\	4a/	4cc\	.	.
2BB-/	8.b-\L	8.dd\L	.	.
.	16cc\Jk	16ee\Jk	.	.
.	4dd\	4ff\	.	.
=30	=30	=30	=30	=30
2F\	2a/	2cc\	1r	8r
.	.	.	.	8f/
.	.	.	.	8g/L
.	.	.	.	8a/J
4BB-/	2r	2r	.	8b-/L
.	.	.	.	8a/J
4C/	.	.	.	8g/L
.	.	.	.	8a/J
=31	=31	=31	=31	=31
2FF/	2r	2r	2r	4f/
.	.	.	.	4f/
8r	8r	8r	8r	8r
8D\	8a/	8dd\	8f/	8a/
8D\	8a/	8dd\	8f/	8a/
8D\	8a/	8dd\	8f/	8a/
=32	=32	=32	=32	=32
4C#/	4a/	4ee\	4e/	4a/
4D\	4a/	4dd\	4f#/	4a/
2GG/	2g/	2dd\	8.g/L	8.b-\L
.	.	.	16a/Jk	16cc\Jk
.	.	.	4b-\	4dd\
=33	=33	=33	=33	=33
1D	1a	1dd	2f#/	2a/
.	.	.	4d/	2r
.	.	.	8d/	.
.	.	.	8d/	.
=34	=34	=34	=34	=34
1r	1r	1r	8d/	4a/
.	.	.	8d/	.
.	.	.	8c/	8a/
.	.	.	8B/	8a/
.	.	.	8.A/L	8a/
.	.	.	.	8a/
.	.	.	16B/Jk	.
.	.	.	8.A/L	8g/
.	.	.	.	8f/
.	.	.	16B/Jk	.
=35	=35	=35	=35	=35
1r	1r	4cc\	8.c/L	8.e/L
.	.	.	16d/Jk	16f/Jk
.	.	8cc\	8.c/L	8.e/L
.	.	8cc\	.	.
.	.	.	16d/Jk	16f/Jk
.	.	8cc\	8.e/L	8.g/L
.	.	8cc\	.	.
.	.	.	16f/Jk	16a/Jk
.	.	8b\	8.e/L	8.g/L
.	.	8a/	.	.
.	.	.	16f/Jk	16a/Jk
=36	=36	=36	=36	=36
1r	4g/	8.g/L	4g/	8.b\L
.	.	16a/Jk	.	16cc\Jk
.	8g/	8.g/L	4G/	8.b\L
.	8g/	.	.	.
.	.	16a/Jk	.	16cc\Jk
.	8g/	8.b\L	4d/	4dd\
.	8g/	.	.	.
.	.	16cc\Jk	.	.
.	8f/	8.b\L	4d/	4d/
.	8e/	.	.	.
.	.	16cc\Jk	.	.
=37	=37	=37	=37	=37
4D\	8.d/L	4dd\	4f/	4a/
.	16e/Jk	.	.	.
8D\	8.d/L	4d/	8f/	4a/
8D\	.	.	8f/	.
.	16e/Jk	.	.	.
8D\	8.f/L	4a/	8f/	2r
8D\	.	.	8f/	.
.	16g/Jk	.	.	.
8C/	8.f/L	4a/	8e/	.
8BB/	.	.	8d/	.
.	16g/Jk	.	.	.
=38	=38	=38	=38	=38
8.AA/L	4a/	4cc\	8.c/L	2r
16BB/Jk	.	.	16d/Jk	.
8.AA/L	4A/	8cc\	8.c/L	.
.	.	8cc\	.	.
16BB/Jk	.	.	16d/Jk	.
8.C/L	4e/	8cc\	8.e/L	4g/
.	.	8cc\	.	.
16D/Jk	.	.	16f/Jk	.
8.C/L	4e/	8b\	8.e/L	8g/
.	.	8a/	.	8g/
16D/Jk	.	.	16f/Jk	.
=39	=39	=39	=39	=39
8.E\L	1r	8.g/L	4g/	8g/
.	.	.	.	8g/
16F\Jk	.	16a/Jk	.	.
8.E\L	.	8.g/L	4G/	8f/
.	.	.	.	8e/
16F\Jk	.	16a/Jk	.	.
4G\	.	8.b\L	4d/	8.d/L
.	.	16cc\Jk	.	16e/Jk
4GG/	.	8.b\L	4d/	8.d/L
.	.	16cc\Jk	.	16e/Jk
=40	=40	=40	=40	=40
4D\	2r	8.dd\L	1r	8.f/L
.	.	16ee\Jk	.	16g/Jk
8D\	.	8.dd\L	.	8.f/L
8D\	.	.	.	.
.	.	16ee\Jk	.	16g/Jk
8D\	4a/	4ff\	.	8.a/L
8D\	.	.	.	.
.	.	.	.	16b/Jk
8C/	8a/	4dd\	.	8.a/L
8BB/	8a/	.	.	.
.	.	.	.	16b/Jk
=41	=41	=41	=41	=41
4AA/	8a/	1ee	4c/	2cc\
.	8a/	.	.	.
4AA/	8g/	.	8c/	.
.	8f/	.	8c/	.
4C/	4e/	.	8c/	2c/
.	.	.	8c/	.
8C/	4e/	.	8B/	.
8C/	.	.	8A/	.
=42	=42	=42	=42	=42
8C/	4g/	2ee\	8.G/L	2g/
8C/	.	.	.	.
.	.	.	16A/Jk	.
8BB/	8g/	.	8.G/L	.
8AA/	8g/	.	.	.
.	.	.	16A/Jk	.
8.GG/L	8g/	2r	8.B-/L	2g/
.	8g/	.	.	.
16AA/Jk	.	.	16c/Jk	.
8.GG/L	8f/	.	8.B-/L	.
.	8e/	.	.	.
16AA/Jk	.	.	16c/Jk	.
=43	=43	=43	=43	=43
8.BB-/L	8.d/L	4ff\	2d/	4dd\
16C/Jk	16e/Jk	.	.	.
8.BB-/L	8.d/L	8ff\	.	8dd\
.	.	8ff\	.	8dd\
16C/Jk	16e/Jk	.	.	.
8.D\L	8.f/L	8ff\	2d/	8dd\
.	.	8ff\	.	8dd\
16E\Jk	16e/Jk	.	.	.
8.D\L	8.f/L	8ee\	.	8cc\
.	.	8dd\	.	8b\
16E\Jk	16g/Jk	.	.	.
=44	=44	=44	=44	=44
8.F\L	2.a/	2cc\	[1a	8.a/L
16G\Jk	.	.	.	16b/Jk
8.F\L	.	.	.	8.a/L
16G\Jk	.	.	.	16b/Jk
[2A\	.	2ff\	.	8.cc\L
.	.	.	.	16dd\Jk
.	4b\	.	.	8.cc\L
.	.	.	.	16dd\Jk
=45	=45	=45	=45	=45
4A\]	4cc#\	1ee	1a]	4.ee\
4GG/	2dd\	.	.	.
.	.	.	.	8ee\
2AA/	.	.	.	2ee\
.	4cc#\	.	.	.
=46	=46	=46	=46	=46
1D	1dd	1ff#	1a	1dd
=47	=47	=47	=47	=47
1D	1r	1r	1r	1a
=48	=48	=48	=48	=48
2D\	1r	1r	1r	8d/L
.	.	.	.	8e/J
.	.	.	.	8f/L
.	.	.	.	8g/J
2C#/	.	.	.	8e/L
.	.	.	.	8f/J
.	.	.	.	8g/L
.	.	.	.	8a/J
=49	=49	=49	=49	=49
4D\	1r	1r	1r	8d/L
.	.	.	.	8e/J
4E\	.	.	.	8f/L
.	.	.	.	8g/J
4F\	.	.	.	16a/LK
.	.	.	.	8.g/J
4G\	.	.	.	16a/LK
.	.	.	.	8.b/J
=50	=50	=50	=50	=50
4AA/	1r	1r	1r	16cc\LK
.	.	.	.	8.b\J
4BB/	.	.	.	16cc\LK
.	.	.	.	8.dd\J
4C/	.	.	.	2ee\
4D\	.	.	.	.
=51	=51	=51	=51	=51
2E\	1r	1r	1r	4ee\
.	.	.	.	8dd\L
.	.	.	.	8cc\J
2AA/	.	.	.	8dd\L
.	.	.	.	8cc\J
.	.	.	.	8dd\L
.	.	.	.	8ee\J
=52	=52	=52	=52	=52
1E	1r	1r	1r	16ff\LK
.	.	.	.	8.ee\J
.	.	.	.	16dd\LK
.	.	.	.	8.cc\J
.	.	.	.	16dd\LK
.	.	.	.	8.cc\J
.	.	.	.	16b\LK
.	.	.	.	8.cc\J
=53	=53	=53	=53	=53
2AA/	2r	2r	2r	4.a/
.	.	.	.	8g/
2A\	2cc\	2cc\	2e/	8.a/L
.	.	.	.	16b/Jk
.	.	.	.	8.cc\L
.	.	.	.	16dd\Jk
=54	=54	=54	=54	=54
1G	1g	1dd	1g	4b\
.	.	.	.	2cc\
.	.	.	.	4b\
=55	=55	=55	=55	=55
2C/	2g/	2ee\	2g/	8r
.	.	.	.	8cc\
.	.	.	.	8dd\L
.	.	.	.	8ee\J
4F\	2r	2r	2r	8ff\L
.	.	.	.	8ee\J
4G\	.	.	.	8dd\L
.	.	.	.	8ee\J
=56	=56	=56	=56	=56
2C/	1r	2r	2r	4cc\
.	.	.	.	4cc\
8r	.	8r	8r	2r
8A\	.	8cc\	8e/	.
8A\	.	8cc\	8e/	.
8A\	.	8cc\	8e/	.
=57	=57	=57	=57	=57
4G#\	1r	4b\	4e/	1r
4A\	.	4cc#\	4e/	.
2D\	.	8.dd\L	8.f/L	.
.	.	16ee\Jk	16g/Jk	.
.	.	4ff\	4a/	.
=58	=58	=58	=58	=58
2A\	1r	2cc#\	2e/	8r
.	.	.	.	8a/
.	.	.	.	8b\L
.	.	.	.	8cc#\J
4D\	.	2r	2r	8dd\L
.	.	.	.	8cc#\J
4E\	.	.	.	8b\L
.	.	.	.	8cc#\J
=59	=59	=59	=59	=59
2AA/	2r	2r	1r	4a/
.	.	.	.	4a/
8r	8r	8r	.	2r
8F\	8a/	8cc\	.	.
8F\	8a/	8cc\	.	.
8F\	8a/	8cc\	.	.
=60	=60	=60	=60	=60
4E\	4g/	4cc\	1r	1r
4F\	4a/	4cc\	.	.
2BB-/	8.b-\L	8.dd\L	.	.
.	16cc\Jk	16ee\Jk	.	.
.	4dd\	4ff\	.	.
=61	=61	=61	=61	=61
2F\	2a/	2cc\	1r	8r
.	.	.	.	8f/
.	.	.	.	8g/L
.	.	.	.	8a/J
4BB-/	2r	2r	.	8b-/L
.	.	.	.	8a/J
4C/	.	.	.	8g/L
.	.	.	.	8a/J
=62	=62	=62	=62	=62
2FF/	2r	2r	2r	4f/
.	.	.	.	4f/
8r	8r	8r	8r	8r
8D\	8a/	8dd\	8f/	8a/
8D\	8a/	8dd\	8f/	8a/
8D\	8a/	8dd\	8f/	8a/
=63	=63	=63	=63	=63
4C#/	4a/	4ee\	4e/	4a/
4D\	4a/	4dd\	4f#/	4a/
2GG/	2g/	2dd\	8.g/L	8.b-\L
.	.	.	16a/Jk	16cc\Jk
.	.	.	4b-\	4dd\
=64	=64	=64	=64	=64
1D	1a	1dd	2f#/	2a/
.	.	.	4d/	2r
.	.	.	8d/	.
.	.	.	8d/	.
=65	=65	=65	=65	=65
1r	1r	1r	8d/	4a/
.	.	.	8d/	.
.	.	.	8c/	8a/
.	.	.	8B/	8a/
.	.	.	8.A/L	8a/
.	.	.	.	8a/
.	.	.	16B/Jk	.
.	.	.	8.A/L	8g/
.	.	.	.	8f/
.	.	.	16B/Jk	.
=66	=66	=66	=66	=66
1r	1r	4cc\	8.c/L	8.e/L
.	.	.	16d/Jk	16f/Jk
.	.	8cc\	8.c/L	8.e/L
.	.	8cc\	.	.
.	.	.	16d/Jk	16f/Jk
.	.	8cc\	8.e/L	8.g/L
.	.	8cc\	.	.
.	.	.	16f/Jk	16a/Jk
.	.	8b\	8.e/L	8.g/L
.	.	8a/	.	.
.	.	.	16f/Jk	16a/Jk
=67	=67	=67	=67	=67
1r	4g/	8.g/L	4g/	8.b\L
.	.	16a/Jk	.	16cc\Jk
.	8g/	8.g/L	4G/	8.b\L
.	8g/	.	.	.
.	.	16a/Jk	.	16cc\Jk
.	8g/	8.b\L	4d/	4dd\
.	8g/	.	.	.
.	.	16cc\Jk	.	.
.	8f/	8.b\L	4d/	4d/
.	8e/	.	.	.
.	.	16cc\Jk	.	.
=68	=68	=68	=68	=68
4D\	8.d/L	4dd\	4f/	4a/
.	16e/Jk	.	.	.
8D\	8.d/L	4d/	8f/	4a/
8D\	.	.	8f/	.
.	16e/Jk	.	.	.
8D\	8.f/L	4a/	8f/	2r
8D\	.	.	8f/	.
.	16g/Jk	.	.	.
8C/	8.f/L	4a/	8e/	.
8BB/	.	.	8d/	.
.	16g/Jk	.	.	.
=69	=69	=69	=69	=69
8.AA/L	4a/	4cc\	8.c/L	2r
16BB/Jk	.	.	16d/Jk	.
8.AA/L	4A/	8cc\	8.c/L	.
.	.	8cc\	.	.
16BB/Jk	.	.	16d/Jk	.
8.C/L	4e/	8cc\	8.e/L	4g/
.	.	8cc\	.	.
16D/Jk	.	.	16f/Jk	.
8.C/L	4e/	8b\	8.e/L	8g/
.	.	8a/	.	8g/
16D/Jk	.	.	16f/Jk	.
=70	=70	=70	=70	=70
8.E\L	1r	8.g/L	4g/	8g/
.	.	.	.	8g/
16F\Jk	.	16a/Jk	.	.
8.E\L	.	8.g/L	4G/	8f/
.	.	.	.	8e/
16F\Jk	.	16a/Jk	.	.
4G\	.	8.b\L	4d/	8.d/L
.	.	16cc\Jk	.	16e/Jk
4GG/	.	8.b\L	4d/	8.d/L
.	.	16cc\Jk	.	16e/Jk
=71	=71	=71	=71	=71
4D\	2r	8.dd\L	1r	8.f/L
.	.	16ee\Jk	.	16g/Jk
8D\	.	8.dd\L	.	8.f/L
8D\	.	.	.	.
.	.	16ee\Jk	.	16g/Jk
8D\	4a/	4ff\	.	8.a/L
8D\	.	.	.	.
.	.	.	.	16b/Jk
8C/	8a/	4dd\	.	8.a/L
8BB/	8a/	.	.	.
.	.	.	.	16b/Jk
=72	=72	=72	=72	=72
4AA/	8a/	1ee	4c/	2cc\
.	8a/	.	.	.
4AA/	8g/	.	8c/	.
.	8f/	.	8c/	.
4C/	4e/	.	8c/	2c/
.	.	.	8c/	.
8C/	4e/	.	8B/	.
8C/	.	.	8A/	.
=73	=73	=73	=73	=73
8C/	4g/	2ee\	8.G/L	2g/
8C/	.	.	.	.
.	.	.	16A/Jk	.
8BB/	8g/	.	8.G/L	.
8AA/	8g/	.	.	.
.	.	.	16A/Jk	.
8.GG/L	8g/	2r	8.B-/L	2g/
.	8g/	.	.	.
16AA/Jk	.	.	16c/Jk	.
8.GG/L	8f/	.	8.B-/L	.
.	8e/	.	.	.
16AA/Jk	.	.	16c/Jk	.
=74	=74	=74	=74	=74
8.BB-/L	8.d/L	4ff\	2d/	4dd\
16C/Jk	16e/Jk	.	.	.
8.BB-/L	8.d/L	8ff\	.	8dd\
.	.	8ff\	.	8dd\
16C/Jk	16e/Jk	.	.	.
8.D\L	8.f/L	8ff\	2d/	8dd\
.	.	8ff\	.	8dd\
16E\Jk	16e/Jk	.	.	.
8.D\L	8.f/L	8ee\	.	8cc\
.	.	8dd\	.	8b\
16E\Jk	16g/Jk	.	.	.
=75	=75	=75	=75	=75
8.F\L	2.a/	2cc\	[1a	8.a/L
16G\Jk	.	.	.	16b/Jk
8.F\L	.	.	.	8.a/L
16G\Jk	.	.	.	16b/Jk
[2A\	.	2ff\	.	8.cc\L
.	.	.	.	16dd\Jk
.	4b\	.	.	8.cc\L
.	.	.	.	16dd\Jk
=76	=76	=76	=76	=76
4A\]	4cc#\	1ee	1a]	4.ee\
4GG/	2dd\	.	.	.
.	.	.	.	8ee\
2AA/	.	.	.	2ee\
.	4cc#\	.	.	.
=77	=77	=77	=77	=77
[1D	2dd\	[1ff#	1a	1dd
.	8r	.	.	.
.	8a/	.	.	.
.	8a/	.	.	.
.	8a/	.	.	.
=78	=78	=78	=78	=78
2D\]	8.a/L	2ff#\]	1r	8r
.	.	.	.	8a/
.	16b-/Jk	.	.	.
.	8.a/L	.	.	8a/
.	.	.	.	8a/
.	16g/Jk	.	.	.
8r	8.f/L	2r	.	8.a/L
8D\	.	.	.	.
.	16g/Jk	.	.	16b-/Jk
8D\	8.f/L	.	.	8.a/L
8D\	.	.	.	.
.	16e/Jk	.	.	16g/Jk
=79	=79	=79	=79	=79
8.D\L	[1d	8r	2r	8.f/L
.	.	8dd\	.	.
16E-\Jk	.	.	.	16g/Jk
8.D/L	.	8dd\	.	8.f/L
.	.	8dd\	.	.
16C/Jk	.	.	.	16e/Jk
8.BB-/L	.	8.dd\L	8r	4d/
.	.	.	8d/	.
16C/Jk	.	16ee-\Jk	.	.
8.BB-/L	.	8.dd\L	8d/	4d/
.	.	.	8d/	.
16AA/Jk	.	16cc\Jk	.	.
=80	=80	=80	=80	=80
[1GG	1d]	8.b-\L	8.d/L	8r
.	.	.	.	8dd\
.	.	16cc\Jk	16e-/Jk	.
.	.	8.b-/L	8.d/L	8dd\
.	.	.	.	8dd\
.	.	16a/Jk	16c/Jk	.
.	.	4.g/	8.B-/L	8.dd\L
.	.	.	16c/Jk	16ee-\Jk
.	.	.	8.B-/L	8.dd\L
.	.	8a/	.	.
.	.	.	16A/Jk	16cc\Jk
=81	=81	=81	=81	=81
2GG/]	2d/	4.b-\	8.G/L	8.b-\L
.	.	.	16A/Jk	16cc\Jk
.	.	.	8.G/L	8.b-/L
.	.	8cc\	.	.
.	.	.	16A/Jk	16a/Jk
2GG/	8r	8.dd\L	8.B-/L	8.g/L
.	8dd\	.	.	.
.	.	16ee-\Jk	16c/Jk	16a/Jk
.	8dd\	8.dd\L	8.B-/L	8.g/L
.	8dd\	.	.	.
.	.	16cc\Jk	16c/Jk	16a/Jk
=82	=82	=82	=82	=82
[1GG	8.dd\L	4.b-\	[1d	8.b-\L
.	16ee-\Jk	.	.	16cc\Jk
.	8.dd\L	.	.	8.b-\L
.	.	8a/	.	.
.	16cc\Jk	.	.	16cc\Jk
.	8.b-\L	[2g/	.	[2dd\
.	16cc\Jk	.	.	.
.	8.b-/L	.	.	.
.	16a/Jk	.	.	.
=83	=83	=83	=83	=83
1GG]	4g/	4g/]	4d/]	4dd\]
.	4d/	4a/	4d/	4f#/
.	2g/	2b-\	2e/	2g/
=84	=84	=84	=84	=84
1D;	1d;	1a;	1f#;	1a;
==	==	==	==	==
*-	*-	*-	*-	*-
!!!ENC: Craig Stuart Sapp
!!!END: 2004/12/10/
